packages/ndla-icons/svg/action/ExpandTwoArrows.svg

<svg xmlns="http://www.w3.org/2000/svg" data-license="Apache License 2.0" data-source="Material Design" width="20" height="20" viewBox="0 0 20 20">
    <path d="M8.33333 17.5V15.8333H5.34167L9.09167 12.0833L7.91667 10.9083L4.16667 14.6583V11.6667H2.5V17.5H8.33333ZM12.0833 9.09167L15.8333 5.34167V8.33333H17.5V2.5H11.6667V4.16667H14.6583L10.9083 7.91667L12.0833 9.09167Z" fill="currentColor"/>
</svg>

<svg xmlns="http://www.w3.org/2000/svg" data-license="Apache License 2.0" data-source="Material Design" viewBox="0 0 20 20">
  <path fill="currentColor" d="M8.3 17.5v-1.7h-3l3.8-3.7-1.2-1.2-3.7 3.8v-3H2.5v5.8h5.8Zm3.8-8.4 3.7-3.8v3h1.7V2.5h-5.8v1.7h3l-3.8 3.7 1.2 1.2Z"/>
</svg>
